X:170
T:Shiribim
O:klezmer
M:4/4
L:1/8
Q:1/4=120
K:Am
V:1
cc |"Am" ed ed e2 cc |ed ed e2 cc |"E" e2 d2 c2 B2 |
"Am" cB cd e2 cc |e6 cc |e6 cc |"E" e2 d2 c2 B2 |
"Am" c8  |:"Dm" d2 ff ff ff |"C" g2 ee ee ee |"E" f2 dd dd dd |
|1 "Am" e2 cc cc cc :|2 "E" ed cd e2 d2 |"Am" c6 c2 || |:"Am" e2 c2 c2 c2 |
e2 c2 f2 "Am" e2 |e2 c2 c2 c2 |ed ec "E" d3 f|"Am" e2 c2 c2 c2 |
e2 c2 f2 e2 |e2 c2 c2 c2 |ed ec "E" d4 ||"C" z8 |
"G7" gg ff "C" (e2 "E7" e2) |"C" z8 |"G7" gg ff "C" (e2 "E7" e2) |"Am" c2 de "Dm" d2 cd |
"E" c2 Bc B2 "Am" A2 |"E" cB cB ce ^f^g |"Am" a8 :|
V:2          %2e stem
AA |c2 cB c2 AA |cB cB c2 AA |c2 B2 A2 ^G2 |
A^G AB c2 AA |c6 AA |cB BA c2 AA |c2 B2 A2 ^G2 |
A8  |:A2 dd dd dd |e2 cc cc cc |d2 BB BB BB |
|1 c2 AA AA AA :|2 cB AB c2 B2 |A6 A2 || |:c2 A2 A2 A2 |
c2 A2 d2 c2 |c2 A2 A2 A2 |cB cA B3 d|c2 A2 A2 A2 |
c2 A2 d2 c2 |c2 A2 A2 A2 |cB cA B4 ||c2 de d2 c2 |
z8 |c2 de d2 c2 |z8 |e2 fg f2 ef |
e2 de d2 c2 |ee ee ee ee |a8 :|





